packages/bezier-icons/icons/volume-down.svg

<svg width="24" height="24" viewBox="0 0 24 24" fill="none" xmlns="http://www.w3.org/2000/svg">
<path fill-rule="evenodd" clip-rule="evenodd" d="M13.0002 2.00012L12.8687 2.00879C12.652 2.03752 12.4494 2.13673 12.2931 2.29302L7.58498 7.00002L3.00018 7.00012C2.4479 7.00012 2.00018 7.44784 2.00018 8.00012V16.0001L2.00691 16.1167C2.06468 16.6141 2.48735 17.0001 3.00018 17.0001L7.58598 17L12.2931 21.7072C12.4806 21.8948 12.735 22.0001 13.0002 22.0001H14.0002C14.5525 22.0001 15.0002 21.5524 15.0002 21.0001V3.00012C15.0002 2.44784 14.5525 2.00012 14.0002 2.00012H13.0002ZM13 4.414V19.585L8.70731 15.293L8.60823 15.2062C8.43468 15.0733 8.22121 15.0001 8.0002 15.0001L4 15V9L8.0002 9.0001C8.26542 9.0001 8.51977 8.89474 8.70731 8.70721L13 4.414ZM19.8814 8.52216C19.5672 8.06798 18.9248 8.07171 18.5343 8.46223L18.4971 8.49944C18.1214 8.87512 18.1173 9.47544 18.3741 9.94055C19.0741 11.2082 19.1223 12.8098 18.4179 14.0538C18.1515 14.5244 18.1372 15.1411 18.5196 15.5235C18.9133 15.9172 19.5629 15.9064 19.8672 15.4401C21.2254 13.3595 21.2874 10.5544 19.8814 8.52216Z" fill="#313234"/>
</svg>

<svg xmlns="http://www.w3.org/2000/svg" width="24" height="24" fill="none" viewBox="0 0 24 24"><path fill="#313234" fill-rule="evenodd" d="m13 2-.131.009a1 1 0 0 0-.576.284L7.585 7H3a1 1 0 0 0-1 1v8l.007.117A1 1 0 0 0 3 17h4.586l4.707 4.707A1 1 0 0 0 13 22h1a1 1 0 0 0 1-1V3a1 1 0 0 0-1-1zm0 2.414v15.171l-4.293-4.292-.099-.087A1 1 0 0 0 8 15H4V9h4a1 1 0 0 0 .707-.293zm6.881 4.108c-.314-.454-.956-.45-1.347-.06l-.037.037c-.376.376-.38.976-.123 1.442.7 1.267.748 2.869.044 4.113-.267.47-.28 1.087.102 1.47.393.393 1.043.382 1.347-.084 1.358-2.08 1.42-4.886.014-6.918" clip-rule="evenodd"/></svg>
